remix/Business/registered-line.svg

<svg viewBox="0 0 24 24" fill="currentColor" xmlns="http://www.w3.org/2000/svg"><path d="M12 2C17.5228 2 22 6.47715 22 12C22 17.5228 17.5228 22 12 22C6.47715 22 2 17.5228 2 12C2 6.47715 6.47715 2 12 2ZM12 4C7.58172 4 4 7.58172 4 12C4 16.4183 7.58172 20 12 20C16.4183 20 20 16.4183 20 12C20 7.58172 16.4183 4 12 4ZM12.5 7C14.433 7 16 8.567 16 10.5C16 11.7668 15.327 12.8763 14.3191 13.4907L16.869 17H14.397L12.217 14H10V17H8V7H12.5ZM12.5 9H10V12H12.5C13.2797 12 13.9204 11.4051 13.9931 10.6445L14 10.5C14 9.67157 13.3284 9 12.5 9Z"/></svg>

<svg viewBox="0 0 24 24" xmlns="http://www.w3.org/2000/svg"><path fill="none" d="M0 0h24v24H0Z"/><path d="M12 2c5.523 0 10 4.477 10 10s-4.477 10-10 10C6.477 22 2 17.523 2 12 2 6.477 6.477 2 12 2Zm0 2v0c-4.42 0-8 3.58-8 8 0 4.41 3.58 8 8 8v0c4.41 0 8-3.59 8-8 0-4.42-3.59-8-8-8Zm.5 3v0c1.93-.01 3.5 1.56 3.5 3.49 0 1.22-.64 2.35-1.69 2.99l2.54 3.51h-2.48l-2.18-3H9.97v3h-2v-10h4.5Zm0 2H10v3h2.5 -.001c.77-.01 1.41-.59 1.49-1.36l0-.15v0c0-.83-.68-1.5-1.5-1.5Z"/></svg>
